X:1
T:Title
%%score { 1 | 2 } { 3 | 4 }
L:1/8
Q:1/4=125
M:3/4
K:Ab
V:1 treble nm="Grand Piano, Staff 1"
V:2 treble 
V:3 bass nm="Choir Pad, Invitation (Hastings)"
V:4 bass 
V:1
 E2 c4 | B2 A4 | E2 F2 A2 | F2 E4 | E2 F2 G2 | A2 B2 d2 | c2 B4 | E2 c4 | B2 A4 | E2 e4 | d2 c4 | %11
w: By~Thomas~Hastings~(1784\-1872) *|||||||||||
 E2 E2 F2 | G2 A2 c2 | B2 A4- | A4 z2 |] %15
w: ||||
V:2
 C2 C4 | D2 C4 | C2 D2 F2 | D2 C4 | C2 D2 E2 | E2 E4 | E2 E4 | C2 C4 | D2 C2 E2 | C2 C2 E2 | %10
 E2 E4 | C2 D4 | E2 E4 | D2 C4- | C4 z2 |] %15
V:3
 E,2 E,4 | G,2 A,4 | A,2 A,4 | A,2 A,4 | A,2 A,2 B,2 | A,2 G,2 B,2 | A,2 G,4 | E,2 E,4 | G,2 A,4 | %9
 A,2 A,2 C2 | B,2 A,4 | A,2 A,4 | B,2 A,4 | G,2 A,4- | A,4 z2 |] %15
V:4
 A,,2 A,,4 | A,,2 A,,4 | A,,2 A,,4 | A,,2 A,,4 | A,,2 D,4 | C,2 B,,2 G,,2 | A,,2 E,4 | A,,2 A,,4 | %8
 A,,2 A,,2 C,2 | E,2 E,4 | G,2 z2 z2 | A,,2 D,4 | D,2 C,2 E,2 | E,2 A,,4- | A,,4 z2 |] %15

